core/assets/icons/more.svg

<svg xmlns="http://www.w3.org/2000/svg" width="24" height="24" fill="none"><path fill="#191C22" d="M10 6c0-1.1.9-2 2-2s2 .9 2 2-.9 2-2 2-2-.9-2-2Zm4 6c0 1.1-.9 2-2 2s-2-.9-2-2 .9-2 2-2 2 .9 2 2Zm0 6c0 1.1-.9 2-2 2s-2-.9-2-2 .9-2 2-2 2 .9 2 2Z"/></svg>

<svg width="24" height="24" viewBox="0 0 24 24" xmlns="http://www.w3.org/2000/svg"><g id="more"><path id="Vector" d="M10 6C10 4.9 10.9 4 12 4C13.1 4 14 4.9 14 6C14 7.1 13.1 8 12 8C10.9 8 10 7.1 10 6ZM14 12C14 13.1 13.1 14 12 14C10.9 14 10 13.1 10 12C10 10.9 10.9 10 12 10C13.1 10 14 10.9 14 12ZM14 18C14 19.1 13.1 20 12 20C10.9 20 10 19.1 10 18C10 16.9 10.9 16 12 16C13.1 16 14 16.9 14 18Z"/></g></svg>
